icons/Color/24/gimp-prefs-folders-tool-presets.svg

<svg height="24" viewBox="0 0 24 24" width="24" xmlns="http://www.w3.org/2000/svg" xmlns:xlink="http://www.w3.org/1999/xlink"><linearGradient id="a" gradientTransform="matrix(.60072161 0 0 .60098717 -1.832228 -.055418)" gradientUnits="userSpaceOnUse" x1="18.112709" x2="15.514889" y1="31.36775" y2="6.18025"><stop offset="0" stop-color="#424242"/><stop offset="1" stop-color="#777"/></linearGradient><linearGradient id="b" gradientTransform="matrix(.58553618 0 0 .59905303 -1.767658 .033281)" gradientUnits="userSpaceOnUse" x1="22.175976" x2="22.065331" y1="36.987999" y2="32.050499"><stop offset="0" stop-color="#6194cb"/><stop offset="1" stop-color="#729fcf"/></linearGradient><linearGradient id="c" gradientTransform="matrix(.77145159 0 0 .50194756 -2.348706 -.974753)" gradientUnits="userSpaceOnUse" x1="13.035696" x2="12.853771" y1="32.567184" y2="46.689312"><stop offset="0" stop-color="#fff" stop-opacity=".796078"/><stop offset="1" stop-color="#fff" stop-opacity=".215686"/></linearGradient><path d="m.88410335 23.195223c.013093.250194.27627475.500388.52635795.500388h18.8188177c.250082 0 .487072-.250194.473979-.500388l-.562542-16.362918c-.013098-.250193-.276269-.500392-.526352-.500392h-7.9721c-.291384 0-.741575-.189664-.841998-.665071l-.367276-1.738699c-.093395-.44213-.5299646-.623756-.7800479-.623756h-8.87797962c-.25008809 0-.48707757.250193-.4739843.500387z" fill="#fff" stroke="url(#a)" stroke-linecap="round" stroke-linejoin="round" stroke-width=".600854"/><path d="m.003854 0h23.996141v23.996084h-23.996141z" fill="#bebebe" opacity="0"/><g transform="matrix(3.7795277 0 0 3.7795277 6 -1106.5198)"><path d="m2.4985904 292.96292a.31392258.1962437 0 0 1 -.3027066.19612.31392258.1962437 0 0 1 -.3243371-.1821.31392258.1962437 0 0 1 .2795306-.20914.31392258.1962437 0 0 1 .3443114.16716" fill="#8f5902"/><g stroke-dashoffset="1.96" stroke-linecap="round"><g transform="matrix(.22434049 -.09066942 .1999598 .81248142 -54.22969 56.4782)"><path d="m-6.1648722 290.37798-1.279508-.0396 2.6451432 5.02709 1.3046254.1296z" fill="#c17d11" stroke="#8f5902" stroke-linejoin="round" stroke-width=".263486"/><path d="m-6.2171811 290.62149-.8250133-.0186 2.3667073 4.49791.8864827.1268z" fill="none" stroke="#e9b96e" stroke-width=".264583"/></g><g transform="matrix(-.22374732 -.09212119 -.20522863 .81116864 60.113242 56.823871)"><path d="m-6.1905125 290.46237-1.2538677-.12405 2.608976 5.06652 1.359144.12435z" fill="#c17d11" stroke="#8f5902" stroke-linejoin="round" stroke-width=".263486"/><path d="m-6.2532924 290.60293h-.788902l2.3064286 4.56363.7169802.0209z" fill="none" stroke="#e9b96e" stroke-width=".264583"/></g><g transform="matrix(-.00272966 -.23238865 -.62977863 .12656744 186.56726 256.48185)"><path d="m-6.1295432 290.33834h-1.314837l2.6451432 5.02709h1.314837z" fill="#c17d11" stroke="#8f5902" stroke-linejoin="round" stroke-width=".263486"/><path d="m-6.2532924 290.60293h-.788902l2.3667073 4.49791h.788902z" fill="none" stroke="#e9b96e" stroke-width=".264583"/></g></g></g><path d="m21.527038 23.702238c.669792-.02639 1.149451-.656742 1.198615-1.390406.463618-6.918276.971614-12.7190634.971614-12.7190634.04224-.1482565-.09832-.2965121-.28114-.2965121h-20.1255542s-1.0834287 13.0994285-1.0834287 13.0994285c-.067076.588309-.2728642 1.081121-.9074848 1.308161l20.2273787-.0016z" display="block" fill="url(#b)" stroke="#3465a4" stroke-linejoin="round" stroke-width=".592262"/><path d="m3.7994298 9.960143 19.2007262.039857-.921678 12.299996c-.04937.658913-.263893.878264-1.096528.878264-1.095851 0-16.7922948-.01993-18.3830937-.01993.1367828-.197279.1954297-.607942.1962147-.617775z" fill="none" opacity=".465909" stroke="url(#c)" stroke-linecap="round" stroke-width=".600063"/></svg>

<?xml version="1.0" encoding="UTF-8" standalone="no"?>
<!-- Created with Inkscape (http://www.inkscape.org/) -->

<svg
   xmlns:dc="http://purl.org/dc/elements/1.1/"
   xmlns:cc="http://creativecommons.org/ns#"
   xmlns:rdf="http://www.w3.org/1999/02/22-rdf-syntax-ns#"
   xmlns:svg="http://www.w3.org/2000/svg"
   xmlns="http://www.w3.org/2000/svg"
   xmlns:xlink="http://www.w3.org/1999/xlink"
   xmlns:sodipodi="http://sodipodi.sourceforge.net/DTD/sodipodi-0.dtd"
   xmlns:inkscape="http://www.inkscape.org/namespaces/inkscape"
   width="24"
   height="24"
   id="svg97"
   sodipodi:version="0.32"
   inkscape:version="0.92pre1 unknown"
   sodipodi:docname="gimp-prefs-folders-tool-presets.svg"
   inkscape:output_extension="org.inkscape.output.svg.inkscape"
   version="1.1"
   viewBox="0 0 24 24">
  <defs
     id="defs3">
    <linearGradient
       id="linearGradient9766">
      <stop
         style="stop-color:#6194cb;stop-opacity:1;"
         offset="0"
         id="stop9768" />
      <stop
         style="stop-color:#729fcf;stop-opacity:1;"
         offset="1"
         id="stop9770" />
    </linearGradient>
    <linearGradient
       id="linearGradient3096">
      <stop
         id="stop3098"
         offset="0"
         style="stop-color:#424242;stop-opacity:1;" />
      <stop
         id="stop3100"
         offset="1.0000000"
         style="stop-color:#777777;stop-opacity:1.0000000;" />
    </linearGradient>
    <linearGradient
       gradientUnits="userSpaceOnUse"
       y2="6.1802502"
       x2="15.514889"
       y1="31.36775"
       x1="18.112709"
       id="linearGradient3104-5"
       xlink:href="#linearGradient3096"
       inkscape:collect="always"
       gradientTransform="matrix(0.60072161,0,0,0.60098717,-1.8322278,-0.055418)" />
    <linearGradient
       inkscape:collect="always"
       xlink:href="#linearGradient9766"
       id="linearGradient9772"
       x1="22.175976"
       y1="36.987999"
       x2="22.065331"
       y2="32.050499"
       gradientUnits="userSpaceOnUse"
       gradientTransform="matrix(0.58553618,0,0,0.59905303,-1.7676575,0.03328073)" />
    <linearGradient
       gradientUnits="userSpaceOnUse"
       y2="46.689312"
       x2="12.853771"
       y1="32.567184"
       x1="13.035696"
       gradientTransform="matrix(0.77145159,0,0,0.50194756,-2.3487059,-0.974753)"
       id="linearGradient322-1"
       xlink:href="#linearGradient8340"
       inkscape:collect="always" />
    <linearGradient
       id="linearGradient8340">
      <stop
         id="stop8342"
         stop-color="#ffffff"
         stop-opacity="0.796078" />
      <stop
         id="stop8344"
         offset="1"
         stop-color="#ffffff"
         stop-opacity="0.215686" />
    </linearGradient>
  </defs>
  <sodipodi:namedview
     fill="#729fcf"
     id="base"
     pagecolor="#ffffff"
     bordercolor="#666666"
     borderopacity="0.10196078"
     inkscape:pageopacity="0.0"
     inkscape:pageshadow="2"
     inkscape:zoom="4.9536641"
     inkscape:cx="-1.6890165"
     inkscape:cy="22.152487"
     inkscape:current-layer="svg97"
     showgrid="true"
     inkscape:grid-bbox="true"
     inkscape:document-units="px"
     inkscape:window-width="1920"
     inkscape:window-height="1016"
     inkscape:window-x="0"
     inkscape:window-y="27"
     inkscape:showpageshadow="false"
     stroke="#3465a4"
     inkscape:window-maximized="1"
     showguides="false">
    <inkscape:grid
       type="xygrid"
       id="grid4153" />
  </sodipodi:namedview>
  <metadata
     id="metadata4">
    <rdf:RDF>
      <cc:Work
         rdf:about="">
        <dc:format>image/svg+xml</dc:format>
        <dc:type
           rdf:resource="http://purl.org/dc/dcmitype/StillImage" />
        <dc:title />
        <dc:date />
        <dc:creator>
          <cc:Agent>
            <dc:title>Jakub Steiner</dc:title>
          </cc:Agent>
        </dc:creator>
        <cc:license
           rdf:resource="http://creativecommons.org/publicdomain/zero/1.0/" />
        <dc:source>http://jimmac.musichall.cz</dc:source>
        <dc:subject>
          <rdf:Bag>
            <rdf:li>folder</rdf:li>
            <rdf:li>directory</rdf:li>
          </rdf:Bag>
        </dc:subject>
      </cc:Work>
      <cc:License
         rdf:about="http://creativecommons.org/publicdomain/zero/1.0/">
        <cc:permits
           rdf:resource="http://creativecommons.org/ns#Reproduction" />
        <cc:permits
           rdf:resource="http://creativecommons.org/ns#Distribution" />
        <cc:permits
           rdf:resource="http://creativecommons.org/ns#DerivativeWorks" />
      </cc:License>
    </rdf:RDF>
  </metadata>
  <g
     id="layer1"
     inkscape:label="Folder"
     inkscape:groupmode="layer"
     transform="translate(0,-24)" />
  <g
     id="g4271">
    <path
       sodipodi:nodetypes="ccccccssssccc"
       style="fill:#ffffff;fill-opacity:1;fill-rule:nonzero;stroke:url(#linearGradient3104-5);stroke-width:0.60085434;stroke-linecap:round;stroke-linejoin:round;stroke-miterlimit:4;stroke-dasharray:none;stroke-opacity:1"
       id="path216-5"
       d="m 0.88410335,23.195223 c 0.013093,0.250194 0.27627475,0.500388 0.52635795,0.500388 H 20.229279 c 0.250082,0 0.487072,-0.250194 0.473979,-0.500388 L 20.140716,6.832305 C 20.127618,6.582112 19.864447,6.331913 19.614364,6.331913 h -7.9721 c -0.291384,0 -0.741575,-0.189664 -0.841998,-0.665071 L 10.43299,3.928143 C 10.339595,3.486013 9.9030254,3.304387 9.6529421,3.304387 H 0.77496248 c -0.25008809,0 -0.48707757,0.250193 -0.4739843,0.500387 z"
       inkscape:connector-curvature="0" />
    <rect
       y="0"
       x="0.003854125"
       height="23.996084"
       width="23.996141"
       id="rect3965-5"
       style="color:#000000;clip-rule:nonzero;display:inline;overflow:visible;visibility:visible;opacity:0;isolation:auto;mix-blend-mode:normal;color-interpolation:sRGB;color-interpolation-filters:linearRGB;solid-color:#000000;solid-opacity:1;fill:#bebebe;fill-opacity:1;fill-rule:nonzero;stroke:none;stroke-width:0.73938024;stroke-linecap:round;stroke-linejoin:miter;stroke-miterlimit:4;stroke-dasharray:none;stroke-dashoffset:0;stroke-opacity:1;color-rendering:auto;image-rendering:auto;shape-rendering:auto;text-rendering:auto;enable-background:accumulate" />
    <g
       id="g4276"
       transform="matrix(3.7795277,0,0,3.7795277,6,-1106.5198)">
      <path
         style="opacity:1;fill:#8f5902;fill-opacity:1;stroke:none;stroke-width:0.06592633;stroke-miterlimit:4;stroke-dasharray:none;stroke-opacity:1"
         id="path5013"
         sodipodi:type="arc"
         sodipodi:cx="2.1846678"
         sodipodi:cy="292.96292"
         sodipodi:rx="0.31392258"
         sodipodi:ry="0.1962437"
         sodipodi:start="0"
         sodipodi:end="6.1402416"
         sodipodi:open="true"
         d="m 2.4985904,292.96292 a 0.31392258,0.1962437 0 0 1 -0.3027066,0.19612 0.31392258,0.1962437 0 0 1 -0.3243371,-0.1821 0.31392258,0.1962437 0 0 1 0.2795306,-0.20914 0.31392258,0.1962437 0 0 1 0.3443114,0.16716" />
      <g
         transform="matrix(0.22434049,-0.09066942,0.1999598,0.81248142,-54.22969,56.4782)"
         id="g4948">
        <path
           id="rect5858-9"
           d="m -6.1648722,290.37798 -1.279508,-0.0396 2.6451432,5.02709 1.3046254,0.1296 z"
           style="fill:#c17d11;fill-opacity:1;stroke:#8f5902;stroke-width:0.26348639;stroke-linecap:round;stroke-linejoin:round;stroke-miterlimit:4;stroke-dasharray:none;stroke-dashoffset:1.96000016;stroke-opacity:1"
           inkscape:connector-curvature="0"
           sodipodi:nodetypes="ccccc" />
        <path
           sodipodi:nodetypes="ccccc"
           id="rect5860-7"
           d="m -6.2171811,290.62149 -0.8250133,-0.0186 2.3667073,4.49791 0.8864827,0.1268 z"
           style="fill:none;stroke:#e9b96e;stroke-width:0.26458326;stroke-linecap:round;stroke-linejoin:miter;stroke-miterlimit:4;stroke-dashoffset:1.96000016;stroke-opacity:1"
           inkscape:connector-curvature="0" />
      </g>
      <g
         transform="matrix(-0.22374732,-0.09212119,-0.20522863,0.81116864,60.113242,56.823871)"
         id="g4948-2">
        <path
           id="rect5858-9-2"
           d="m -6.1905125,290.46237 -1.2538677,-0.12405 2.608976,5.06652 1.359144,0.12435 z"
           style="fill:#c17d11;fill-opacity:1;stroke:#8f5902;stroke-width:0.26348639;stroke-linecap:round;stroke-linejoin:round;stroke-miterlimit:4;stroke-dasharray:none;stroke-dashoffset:1.96000016;stroke-opacity:1"
           inkscape:connector-curvature="0"
           sodipodi:nodetypes="ccccc" />
        <path
           sodipodi:nodetypes="ccccc"
           id="rect5860-7-9"
           d="m -6.2532924,290.60293 h -0.788902 l 2.3064286,4.56363 0.7169802,0.0209 z"
           style="fill:none;stroke:#e9b96e;stroke-width:0.26458326;stroke-linecap:round;stroke-linejoin:miter;stroke-miterlimit:4;stroke-dashoffset:1.96000016;stroke-opacity:1"
           inkscape:connector-curvature="0" />
      </g>
      <g
         transform="matrix(-0.00272966,-0.23238865,-0.62977863,0.12656744,186.56726,256.48185)"
         id="g4948-2-0">
        <path
           id="rect5858-9-2-2"
           d="m -6.1295432,290.33834 h -1.314837 l 2.6451432,5.02709 H -3.4844 Z"
           style="fill:#c17d11;fill-opacity:1;stroke:#8f5902;stroke-width:0.26348639;stroke-linecap:round;stroke-linejoin:round;stroke-miterlimit:4;stroke-dasharray:none;stroke-dashoffset:1.96000016;stroke-opacity:1"
           inkscape:connector-curvature="0" />
        <path
           id="rect5860-7-9-1"
           d="m -6.2532924,290.60293 h -0.788902 l 2.3667073,4.49791 h 0.788902 z"
           style="fill:none;stroke:#e9b96e;stroke-width:0.26458326;stroke-linecap:round;stroke-linejoin:miter;stroke-miterlimit:4;stroke-dashoffset:1.96000016;stroke-opacity:1"
           inkscape:connector-curvature="0" />
      </g>
    </g>
    <path
       inkscape:export-ydpi="74.800003"
       inkscape:export-xdpi="74.800003"
       inkscape:export-filename="/home/jimmac/ximian_art/icons/nautilus/suse93/gnome-fs-directory.png"
       sodipodi:nodetypes="cscccscc"
       id="path233-5"
       d="m 21.527038,23.702238 c 0.669792,-0.02639 1.149451,-0.656742 1.198615,-1.390406 0.463618,-6.918276 0.971614,-12.7190634 0.971614,-12.7190634 0.04224,-0.1482565 -0.09832,-0.2965121 -0.28114,-0.2965121 H 3.2905728 c 0,0 -1.0834287,13.0994285 -1.0834287,13.0994285 -0.067076,0.588309 -0.2728642,1.081121 -0.9074848,1.308161 l 20.2273787,-0.0016 z"
       style="color:#000000;display:block;visibility:visible;fill:url(#linearGradient9772);fill-opacity:1;fill-rule:nonzero;stroke:#3465a4;stroke-width:0.59226155;stroke-linecap:butt;stroke-linejoin:round;stroke-miterlimit:4;stroke-dasharray:none;stroke-dashoffset:0;stroke-opacity:1;marker:none;marker-start:none;marker-mid:none;marker-end:none"
       inkscape:connector-curvature="0" />
    <path
       style="opacity:0.46590911;fill:none;fill-opacity:1;fill-rule:evenodd;stroke:url(#linearGradient322-1);stroke-width:0.60006285px;stroke-linecap:round;stroke-linejoin:miter;stroke-opacity:1"
       d="M 3.7994298,9.960143 23.000156,10 22.078478,22.299996 c -0.04937,0.658913 -0.263893,0.878264 -1.096528,0.878264 -1.095851,0 -16.7922948,-0.01993 -18.3830937,-0.01993 0.1367828,-0.197279 0.1954297,-0.607942 0.1962147,-0.617775 z"
       id="path304-3"
       sodipodi:nodetypes="ccsscsc"
       inkscape:connector-curvature="0" />
  </g>
</svg>
